components/Common/Svg/svgs/costReduction.svg

<svg
  width="90"
  height="90"
  viewBox="0 0 90 90"
  fill="none"
  xmlns="http://www.w3.org/2000/svg"
>
  <circle
    opacity="0.5"
    cx="45"
    cy="45"
    r="45"
    fill="#FFE603"
  ></circle>
  <path
    d="M61 38.8079H59.7717L60.2882 37.7748H55.0031L54.4866 38.8079H51.5953C50.8268 33.189 46.0709 29 40.3575 29C34.0961 29 29 34.0961 29 40.3575C29 44.5528 31.2866 48.2189 34.6756 50.1843V61H35.7087V56.3575H45V61H46.0331V50.1968C48.9937 48.4961 51.1039 45.4976 51.5953 41.9071H54.4992L55.0157 42.8898H60.3071L59.7906 41.9071H61V38.8079ZM35.7087 55.3244V50.7134C37.126 51.3496 38.7008 51.7087 40.3512 51.7087C42.0079 51.7087 43.5764 51.3496 44.9937 50.7197V55.3244H35.7087ZM40.3575 50.6756C34.663 50.6756 30.0331 46.0457 30.0331 40.3512C30.0331 34.6567 34.663 30.0331 40.3575 30.0331C45.5102 30.0331 49.8 33.7748 50.5559 38.8079H48.9874C48.2441 34.6567 44.6157 31.5827 40.3575 31.5827C35.5197 31.5827 31.5827 35.5197 31.5827 40.3575C31.5827 45.1953 35.5197 49.1323 40.3575 49.1323C44.622 49.1323 48.2441 46.0583 48.9874 41.9071H50.5559C49.8 46.9402 45.5165 50.6756 40.3575 50.6756ZM40.3512 37.2583C38.6441 37.2583 37.252 38.6504 37.252 40.3575C37.252 42.0646 38.6441 43.4567 40.3512 43.4567C41.4661 43.4567 42.4803 42.8583 43.0283 41.9071H44.7291C44.0803 43.7339 42.3354 45.0063 40.3512 45.0063C37.7874 45.0063 35.7087 42.9213 35.7087 40.3638C35.7087 37.8063 37.7937 35.7213 40.3512 35.7213C42.3354 35.7213 44.0803 36.9937 44.7291 38.8205H43.0283V38.8079C42.4803 37.8567 41.4661 37.2583 40.3512 37.2583ZM41.3843 41.9008H41.7181C41.3465 42.2283 40.8677 42.4173 40.3512 42.4173C39.211 42.4173 38.285 41.4913 38.285 40.3512C38.285 39.211 39.211 38.285 40.3512 38.285C40.8614 38.285 41.3465 38.474 41.7181 38.8016H41.3843C40.5276 38.8016 39.8346 39.4945 39.8346 40.3512C39.8409 41.2079 40.5339 41.9008 41.3843 41.9008ZM40.3512 34.6819C37.2205 34.6819 34.6756 37.2268 34.6756 40.3575C34.6756 43.4882 37.2205 46.0331 40.3512 46.0331C42.8961 46.0331 45.126 44.3197 45.8126 41.9071H47.9354C47.211 45.4724 44.0551 48.0992 40.3512 48.0992C36.0803 48.0992 32.6094 44.6283 32.6094 40.3575C32.6094 36.0866 36.0866 32.6157 40.3575 32.6157C44.0551 32.6157 47.2173 35.2425 47.9417 38.8079H45.8126C45.126 36.3953 42.8961 34.6819 40.3512 34.6819ZM58.0772 40.874L58.5937 41.8567H55.6331L55.1165 40.874H41.3843C41.1008 40.874 40.8677 40.6409 40.8677 40.3575C40.8677 40.074 41.1008 39.8409 41.3843 39.8409H55.1228L55.6394 38.8079H58.6126L58.0961 39.8409H59.9606V40.874H58.0772Z"
    fill="black"
  ></path>
</svg>

<svg width="90" height="90" viewBox="0 0 90 90" fill="none" xmlns="http://www.w3.org/2000/svg"><circle opacity=".5" cx="45" cy="45" r="45" fill="#FFE603"/><path d="M61 38.808h-1.228l.516-1.033h-5.285l-.516 1.033h-2.892A11.312 11.312 0 0 0 40.358 29C34.096 29 29 34.096 29 40.358c0 4.195 2.287 7.86 5.676 9.826V61h1.033v-4.642H45V61h1.033V50.197c2.96-1.7 5.07-4.7 5.562-8.29H54.5l.517.983h5.291l-.516-.983H61v-3.1ZM35.709 55.324v-4.61c1.417.636 2.992.995 4.642.995a11.4 11.4 0 0 0 4.643-.99v4.605h-9.285Zm4.648-4.648c-5.694 0-10.324-4.63-10.324-10.325 0-5.694 4.63-10.318 10.325-10.318 5.152 0 9.442 3.742 10.198 8.775h-1.569c-.743-4.151-4.371-7.225-8.63-7.225-4.837 0-8.774 3.937-8.774 8.775 0 4.837 3.937 8.774 8.775 8.774 4.264 0 7.886-3.074 8.63-7.225h1.568a10.27 10.27 0 0 1-10.198 8.769Zm-.006-13.418a3.105 3.105 0 0 0-3.099 3.1c0 1.707 1.392 3.099 3.1 3.099 1.114 0 2.128-.599 2.676-1.55h1.701a4.663 4.663 0 0 1-4.378 3.1 4.647 4.647 0 0 1-4.642-4.643 4.65 4.65 0 0 1 4.642-4.643 4.663 4.663 0 0 1 4.378 3.1h-1.7v-.013a3.088 3.088 0 0 0-2.678-1.55Zm1.033 4.643h.334a2.067 2.067 0 1 1-1.367-3.616c.51 0 .995.189 1.367.517h-.334a1.549 1.549 0 1 0 0 3.099Zm-1.033-7.22a5.68 5.68 0 0 0-5.675 5.677 5.68 5.68 0 0 0 5.675 5.675 5.7 5.7 0 0 0 5.462-4.126h2.122a7.749 7.749 0 0 1-7.584 6.192c-4.27 0-7.742-3.47-7.742-7.741 0-4.271 3.478-7.742 7.748-7.742a7.754 7.754 0 0 1 7.585 6.192h-2.13a5.7 5.7 0 0 0-5.46-4.126Zm17.726 6.193.517.983h-2.96l-.517-.983H41.383a.519.519 0 0 1-.516-.517c0-.283.233-.516.516-.516h13.739l.516-1.033h2.974l-.517 1.033h1.865v1.033h-1.884Z" fill="#000"/></svg>
